X:1
T:Det står en älsklig blomma
T:August Söderman (1832-1876)
T:Det står en älsklig blomma
T:©PA Aglert Edition may be freely distributed, duplicated, performed and recorded
T:©PA Aglert Edition may be freely distributed, duplicated, performed and recorded
T:©PA Aglert Edition may be freely distributed, duplicated, performed and recorded
C:August Söderman (1832-1876)
Z:©PA Aglert
Z:Edition may be freely distributed, duplicated, performed and recorded
%%score [ 1 2 3 4 ]
L:1/8
Q:1/8=126
M:6/8
K:Eb
V:1 treble nm="S"
V:2 treble nm="A"
V:3 treble-8 nm="T"
V:4 bass nm="B"
V:1
"^Andante"!p! B"^Sost." | B>BB/B/!<(! BB!<)!e |!>(! B>!>)!BB/B/ B2!<(! E!<)! | eE!<(!E!<)! eEc | %4
w: Det|står en älsk- lig blom- ma bland|vi- de- bus- kars snår, och|få- geln han sjun- ger sitt|
!>(! B/>A/!>)!G/>A/G/>A/ B z B | B>Bc/B/!<(! GG!<)!F | G!>(!GF!>)! G2 z | %7
w: tir- re- lir- re- lir- re- li. Hon|göm- mer sig för värl- den och|dof- tan- de står.|
!pp! c/>B/A/>c/e/ z/ c/>B/A/>c/e/ z/ | c/>B/A/>c/A/>c/ e/z/e/z/!mf!c | %9
w: Tir- re- lir- re- litt, tir- re- lir- re- litt|tir- re- lir- re- lir- re- litt- litt; Då|
!<(! B>!<)!e!>(!B/G/!>)! EEF/G/ | A3 c z c |!<(! B>e!<)!!>(!B/G/ E!>)!EE/F/ | G3 F3 | E3- E z z |] %14
w: klin- gar det så vac- kert ut- i|sko- gen, då|klin- gar det så vac- kert ut- i|sko- *|gen. _|
V:2
!p! G"^Sost." | G>FE/F/!<(! GG!<)!c |!>(! G>!>)!FE/F/ G2!<(! E!<)! | eE!<(!E!<)! eEA | %4
w: Det|står en älsk- lig blom- ma bland|vi- de- bus- kars snår, och|få- geln han sjun- ger sitt|
!>(! G/>F/!>)!E/>F/E/>F/ G z E | D>DE/D/!<(! EE!<)!C | E!>(!EC!>)! =E2 z | %7
w: tir- re- lir- re- lir- re- li. Hon|göm- mer sig för värl- den och|dof- tan- de står.|
!pp! A/>!courtesy!_E/C/>A/c/ z/ A/>E/C/>A/c/ z/ | A/>E/C/>A/C/>A/ c/z/c/z/!mf!A | %9
w: Tir- re- lir- re- litt, tir- re- lir- re- litt|tir- re- lir- re- lir- re- litt- litt; Då|
!<(! G>!<)!B!>(!G/E/!>)! EEE/E/ | E3 A z A |!<(! G>B!<)!G/!>(!E/ E!>)!EE/E/ | E3 D3 | E3- E z z |] %14
w: klin- gar det så vac- kert ut- i|sko- gen, då|klin- gar det så vac- kert ut- i|sko- *|gen. _|
V:3
!p! e"^Sost." | e>BG/B/!<(! ee!<)!a |!>(! e>!>)!BG/B/ e2!<(! e!<)! | (c>B)A/B/!<(! cc!<)!e | %4
w: Det|står en älsk- lig blom- ma bland|vi- de- bus- kars snår, och|få- * geln han sjun- ger sitt|
!>(! e/>B/!>)!B/>B/B/>B/ B z G | F>FA/F/!<(! EE!<)!A | B!>(!BA!>)! G2 z | %7
w: tir- re- lir- re- lir- re- li. Hon|göm- mer sig för värl- den och|dof- tan- de står.|
 z z!pp! c/>B/ A/z/zc/>B/ | A/z/zA/>c/ e/z/e/z/!mf!e |!<(! e>!<)!g!>(!e/B/!>)! BBB/B/ | c3 e z e | %11
w: Tir- re- litt, tir- re-|litt tir- re- litt- litt; Då|klin- gar det så vac- kert ut- i|sko- gen, då|
!<(! e>g!<)!e/!>(!B/ B!>)!BB/c/ | B3 A3 | G3- G z z |] %14
w: klin- gar det så vac- kert ut- i|sko- *|gen. _|
V:4
!p! E,"^Sost." | E,>E,E,/E,/!<(! E,E,!<)!E |!>(! E,>!>)!E,E,/E,/ E,2!<(! E!<)! | %3
w: Det|står en älsk- lig blom- ma bland|vi- de- bus- kars snår, och|
 (A,>E,)C,/E,/!<(! A,A,!<)!A, |!>(! E,/>E,/!>)!E,/>E,/E,/>E,/ E, z E, | %5
w: få- * geln han sjun- ger sitt|tir- re- lir- re- lir- re- li. Hon|
 B,,>B,,A,,/B,,/!<(! C,C,!<)!F, | E,!>(!E,F,!>)! C,2 z | z z!pp! A,/>E,/ C,/z/zA,/>E,/ | %8
w: göm- mer sig för värl- den och|dof- tan- de står.|Tir- re- litt, tir- re-|
 C,/z/zC,/>A,/ C/z/C/z/!mf!A, |!<(! B,>!<)!B,!>(!B,/B,/!>)! G,G,A,/B,/ | C3 A, z A, | %11
w: litt tir- re- litt- litt; Då|klin- gar det så vac- kert ut- i|sko- gen, då|
!<(! B,>B,!<)!B,/!>(!B,/ G,!>)!G,G,/A,/ | B,3 B,,3 | E,3- E, z z |] %14
w: klin- gar det så vac- kert ut- i|sko- *|gen. _|

